!!!ONB: MCCC : IJB0065_03 : Extracted Monophonic Melody
!!!COM: Bach, Johann Sebastian
!!!OPR: Cello Suite No.3
!!!OMV: 3
!!!SCT: BWV 1009
!!!ODT: 1717///
**kern
*thru
*staff1
*IP1
*clefF4
*k[]
*C:
*M3/4
*>A
8c
=1
8c
8G
8E
8C
8GG
8EE
=2
8CC
8c
8d
8c
8B
8c
=3
8d
8B
8G
8D
8BB
8GG
=4
8FF
8d
8c
8B
8A
8G
=5
8c
8B
8A
8G
8F
8E
=6
8F
8D
8GG
8A
8G
8F
=7
8E
8D
8C
8BB
8C
8GG
=8
4.CC
16C
16D
8E
8F#
=9
8BB
8D
8G
8A
8B
8c
=10
8G#
8d
8E
8d
8c
8B
=11
8c
8B
8A
8G#
8A
8E
=12
8C
8D
8E
8C
8AA
8GG
=13
8FF#
8AA
8D
8E
8F#
8G
=14
8A
8F#
8D
8c
8B
8A
=15
8B
8A
8G
8F#
8G
8D
=16
8BB
8C
8D
8BB
8GG
8FF
=17
8EE
8G
8A
8G
8F#
8G
=18
8C
8D
8C
8BB
8AA
8GG
=19
8FF#
8A
8B
8A
8G
8A
=20
8C
8E
8D
8C
8BB
8AA
=21
8GG
8B
8c
8B
8E
8B
=22
8AA
8c
8d
8c
8F#
8c
=23
8BB
8d
8e
8d
8c
8B
=24
8A
8G
8F
8E
8F
8D
=25
8CC
8F
8E
8D
8E
8C
=26
8BB
8C
8D
8E
8F#
8G
=27
8AA
8D
8E
8F#
8G
8A
=28
8GG
8E
8F#
8G
8A
8B
=29
8DD
8c
8A
8c
8F#
8c
=30
8D
8c
8A
8c
8F#
8c
=31
8D
8B-
8G
8B-
8F#
8B-
=32
8D
8B-
8G
8B-
8F#
8B-
=33
8E-
8A
8G
8A
8F#
8A
=34
8E-
8A
8G
8A
8F#
8A
=35
8c
8A
8F#
8D
8AA
8FF#
=36
4.DD
8D
8F#
8A
=37
8B
8c
8d
8A
8B
8G
=38
8A
8B
8c
8G
8A
8F#
=39
8G
8D
8E
8C
8AA
8F#
=40
2GG
8r
*>A
8c
=1
8c
8G
8E
8C
8GG
8EE
=2
8CC
8c
8d
8c
8B
8c
=3
8d
8B
8G
8D
8BB
8GG
=4
8FF
8d
8c
8B
8A
8G
=5
8c
8B
8A
8G
8F
8E
=6
8F
8D
8GG
8A
8G
8F
=7
8E
8D
8C
8BB
8C
8GG
=8
4.CC
16C
16D
8E
8F#
=9
8BB
8D
8G
8A
8B
8c
=10
8G#
8d
8E
8d
8c
8B
=11
8c
8B
8A
8G#
8A
8E
=12
8C
8D
8E
8C
8AA
8GG
=13
8FF#
8AA
8D
8E
8F#
8G
=14
8A
8F#
8D
8c
8B
8A
=15
8B
8A
8G
8F#
8G
8D
=16
8BB
8C
8D
8BB
8GG
8FF
=17
8EE
8G
8A
8G
8F#
8G
=18
8C
8D
8C
8BB
8AA
8GG
=19
8FF#
8A
8B
8A
8G
8A
=20
8C
8E
8D
8C
8BB
8AA
=21
8GG
8B
8c
8B
8E
8B
=22
8AA
8c
8d
8c
8F#
8c
=23
8BB
8d
8e
8d
8c
8B
=24
8A
8G
8F
8E
8F
8D
=25
8CC
8F
8E
8D
8E
8C
=26
8BB
8C
8D
8E
8F#
8G
=27
8AA
8D
8E
8F#
8G
8A
=28
8GG
8E
8F#
8G
8A
8B
=29
8DD
8c
8A
8c
8F#
8c
=30
8D
8c
8A
8c
8F#
8c
=31
8D
8B-
8G
8B-
8F#
8B-
=32
8D
8B-
8G
8B-
8F#
8B-
=33
8E-
8A
8G
8A
8F#
8A
=34
8E-
8A
8G
8A
8F#
8A
=35
8c
8A
8F#
8D
8AA
8FF#
=36
4.DD
8D
8F#
8A
=37
8B
8c
8d
8A
8B
8G
=38
8A
8B
8c
8G
8A
8F#
=39
8G
8D
8E
8C
8AA
8F#
=40
2GG
8r
*>B
8d
=41
8d
8B
8G
8D
8BB
8D
=42
8F
8D
8BB
8AA
8BB
8GG
=43
8CC
8F
8E
8D
8E
8G
=44
8c
8d
8e
8B
8c
8A
=45
8F
8G
8A
8E
8F
8D
=46
8BB
8A
8B
8c
8d
8B
=47
8G#
8F#
8G#
8A
8B
8G#
=48
8E
8B
8G#
8E
8e
8D
=49
8C
8A
8E
8C
8BB
8G
=50
8AA
8F
8C
8AA
8GG
8E
=51
8FF
8D
8AA
8FF
8EE
8C
=52
8DD
8c
8B
8c
8d
8G#
=53
8CC
8e
8d
8c
8B
8A
=54
8E
8d
8c
8B
8A
8G#
=55
8A
8E
8D
8C
8D
8E
=56
4.AA
16A
16B
16c
16B
16c
16A
=57
8G
8E
8C
8E
8G
8B-
=58
8EE
8d
8c
8B-
8A
8G
=59
8A
8F
8E
8F
8C
8F
=60
8AA
8C
8FF
8A
8G
8A
=61
8B-
8A
8G
8F
8E
8G
=62
8C#
8E
8GG
8BB-
8AA
8GG
=63
8FF
8EE
8FF
8GG
8AA
8FF
=64
8DD
8FF
8AA
8D
8E
8F
=65
8GG#
8F
8E
8D
8C
8BB
=66
8AA
8C
8F
8A
8F
8D
=67
8BB
8A
8G
8F
8E
8D
=68
8C
8E
8A
8c
8A
8F
=69
8D
8c
8B
8A
8G
8F
=70
8E
8G
8c
8e
8c
8A
=71
8F
8e
8d
8c
8B
8A
=72
8B
8d
8B
8G
8D
8BB
=73
8GG
8F
8D
8F
8BB
8F
=74
8GG
8F
8D
8F
8BB
8F
=75
8GG
8E-
8C
8E-
8BB
8E-
=76
8GG
8E-
8C
8E-
8BB
8E-
=77
8AA-
8D
8C
8D
8BB
8D
=78
8AA-
8D
8C
8D
8BB
8D
=79
8F
8GG
8BB
8D
8F
8B
=80
4.d
8c
8B
8A
=81
8G
8F
8E
8G
8F
8D
=82
8E
8D
8C
8E
8D
8BB
=83
8C
8G
8A
8F
8D
8B
=84
2c
8r
*>B
8d
=41
8d
8B
8G
8D
8BB
8D
=42
8F
8D
8BB
8AA
8BB
8GG
=43
8CC
8F
8E
8D
8E
8G
=44
8c
8d
8e
8B
8c
8A
=45
8F
8G
8A
8E
8F
8D
=46
8BB
8A
8B
8c
8d
8B
=47
8G#
8F#
8G#
8A
8B
8G#
=48
8E
8B
8G#
8E
8e
8D
=49
8C
8A
8E
8C
8BB
8G
=50
8AA
8F
8C
8AA
8GG
8E
=51
8FF
8D
8AA
8FF
8EE
8C
=52
8DD
8c
8B
8c
8d
8G#
=53
8CC
8e
8d
8c
8B
8A
=54
8E
8d
8c
8B
8A
8G#
=55
8A
8E
8D
8C
8D
8E
=56
4.AA
16A
16B
16c
16B
16c
16A
=57
8G
8E
8C
8E
8G
8B-
=58
8EE
8d
8c
8B-
8A
8G
=59
8A
8F
8E
8F
8C
8F
=60
8AA
8C
8FF
8A
8G
8A
=61
8B-
8A
8G
8F
8E
8G
=62
8C#
8E
8GG
8BB-
8AA
8GG
=63
8FF
8EE
8FF
8GG
8AA
8FF
=64
8DD
8FF
8AA
8D
8E
8F
=65
8GG#
8F
8E
8D
8C
8BB
=66
8AA
8C
8F
8A
8F
8D
=67
8BB
8A
8G
8F
8E
8D
=68
8C
8E
8A
8c
8A
8F
=69
8D
8c
8B
8A
8G
8F
=70
8E
8G
8c
8e
8c
8A
=71
8F
8e
8d
8c
8B
8A
=72
8B
8d
8B
8G
8D
8BB
=73
8GG
8F
8D
8F
8BB
8F
=74
8GG
8F
8D
8F
8BB
8F
=75
8GG
8E-
8C
8E-
8BB
8E-
=76
8GG
8E-
8C
8E-
8BB
8E-
=77
8AA-
8D
8C
8D
8BB
8D
=78
8AA-
8D
8C
8D
8BB
8D
=79
8F
8GG
8BB
8D
8F
8B
=80
4.d
8c
8B
8A
=81
8G
8F
8E
8G
8F
8D
=82
8E
8D
8C
8E
8D
8BB
=83
8C
8G
8A
8F
8D
8B
=84
2c
8r
==
*-
